X:1
T:Monk, 88.88.77
T:Monk, 88.88.77
T:William Henry Monk, 1889
T:Public Domain Courtesy of the Cyber Hymnal™
C:William Henry Monk, 1889
Z:Public Domain
Z:Courtesy of the Cyber Hymnal™
%%score ( 1 2 ) ( 3 4 )
L:1/8
Q:1/4=113
M:none
K:G
V:1 treble 
V:2 treble 
V:3 bass 
V:4 bass 
V:1
 [DG]2 [GB]2 [Ad]2 [FB]2 | [EG]2 [GB]2 [FA]2 G2 | [DB]2 (B^c) [Fd]2 [DA]2 | G2 [DF]2 (FE) [A,D]2 | %4
 [DG]2 [GB]2 [Ad]2 [FB]2 | [EG]2 [GB]2 [FA]2 G2 | [DB]2 (B^c) [Fd]2 [DA]2 | G2 [DF]2 FE [A,D]2 | %8
 [CE]2 [CE]2 [DG]2 G2 | [Gd]2 [Gc]2 [GB]2 [FA]2 | [Fd]2 [FB]2 G2 ([Fd][Ec]) | B2 z [B,G]4 x |] %12
V:2
 x8 | x6 G2 | x2 G2 x4 | (D^C) x C2 x3 | x8 | x6 G2 | x2 G2 x4 | (D^C) x C2 x3 | x6 G2 | x8 | %10
 x4 G2 x2 | D3 (A2 C) x2 |] %12
V:3
 [G,B,]2 [G,D]2 [F,D]2 [D,D]2 | [E,B,]2 D2 (DC) [G,B,]2 | G,2 (G,A,) [B,,B,]2 F,2 | %3
 [E,G,]2 ([D,A,][G,,B,]) [A,,G,]2 [D,F,]2 | [G,B,]2 [G,D]2 [F,D]2 [D,D]2 | %5
 [E,B,]2 D2 (DC) [G,B,]2 | G,2 (G,A,) [B,,B,]2 F,2 | [E,G,]2 ([D,A,][G,,B,]) [A,,G,]2 [D,F,]2 | %8
 [C,G,]2 [C,G,]2 [B,,G,]2 (G,A,) | [D,B,]2 [A,,E]2 [D,D]2 [D,D]2 | [B,,D]2 [D,D]2 [E,G,]2 G,2 | %11
 [D,G,]2 [D,F,]2 [G,,G,]4 |] %12
V:4
 x8 | x2 (B,,C,) D,2 x2 | G,2 E,2 x F,2 x | x8 | x8 | x2 (B,,C,) D,2 x2 | G,2 E,2 x F,2 x | x8 | %8
 x6 E,2 | x8 | x6 (B,,C,) | x8 |] %12

